icons/ForwardBuffer.svg

<svg width="24" height="24" viewBox="0 0 24 24" fill="none" xmlns="http://www.w3.org/2000/svg">
<path fill-rule="evenodd" clip-rule="evenodd" d="M16.0594 9.542C16.0844 9.51845 16.1175 9.50533 16.1519 9.50533C16.1862 9.50533 16.2193 9.51845 16.2444 9.542L18.1094 11.407L18.6694 11.952C18.6824 11.9642 18.6928 11.9789 18.6999 11.9952C18.707 12.0116 18.7106 12.0292 18.7106 12.047C18.7106 12.0648 18.707 12.0824 18.6999 12.0988C18.6928 12.1151 18.6824 12.1298 18.6694 12.142L16.2444 14.567C16.2193 14.5906 16.1862 14.6037 16.1519 14.6037C16.1175 14.6037 16.0844 14.5906 16.0594 14.567L15.4994 14.007C15.4865 13.9953 15.4762 13.981 15.4691 13.9651C15.4621 13.9491 15.4584 13.9319 15.4584 13.9145C15.4584 13.8971 15.4621 13.8799 15.4691 13.8639C15.4762 13.848 15.4865 13.8337 15.4994 13.822L17.2694 12.047L15.4994 10.272C15.4779 10.2489 15.466 10.2185 15.466 10.187C15.466 10.1555 15.4779 10.1251 15.4994 10.102L16.0594 9.542ZM7.10437 9.407C7.30604 9.3822 7.51069 9.40078 7.7046 9.46151C7.89851 9.52223 8.07721 9.6237 8.22871 9.7591C8.38021 9.89451 8.50103 10.0607 8.58307 10.2466C8.6651 10.4325 8.70646 10.6338 8.70437 10.837C8.71263 11.0533 8.66097 11.2677 8.55509 11.4565C8.44921 11.6453 8.29324 11.8012 8.10437 11.907C8.31172 11.9969 8.48734 12.1469 8.60856 12.3377C8.72978 12.5284 8.79102 12.7511 8.78437 12.977C8.78463 13.1897 8.73989 13.4001 8.65309 13.5942C8.56628 13.7884 8.43938 13.9621 8.28072 14.1037C8.12206 14.2454 7.93522 14.3519 7.73248 14.4162C7.52974 14.4805 7.31568 14.5013 7.10437 14.477C6.8815 14.4961 6.65708 14.4703 6.44432 14.4013C6.23157 14.3322 6.0348 14.2213 5.86563 14.0749C5.69646 13.9286 5.55832 13.7499 5.45934 13.5493C5.36037 13.3487 5.30257 13.1303 5.28937 12.907H6.28937C6.29113 13.0084 6.31357 13.1083 6.3553 13.2007C6.39704 13.2931 6.45719 13.376 6.53209 13.4444C6.60698 13.5127 6.69504 13.565 6.79086 13.5982C6.88668 13.6313 6.98826 13.6445 7.08937 13.637C7.17979 13.6462 7.27113 13.6361 7.3574 13.6075C7.44367 13.5789 7.52292 13.5324 7.58996 13.471C7.657 13.4097 7.71031 13.3348 7.7464 13.2514C7.78248 13.168 7.80054 13.0779 7.79937 12.987C7.79937 12.572 7.47937 12.322 7.02437 12.322H6.70937V11.507H6.98937C7.40437 11.507 7.72437 11.297 7.72437 10.892C7.72671 10.8087 7.71152 10.7258 7.67978 10.6487C7.64804 10.5716 7.60046 10.5021 7.54012 10.4446C7.47978 10.3871 7.40803 10.3429 7.32951 10.3149C7.251 10.2869 7.16748 10.2757 7.08437 10.282C6.99218 10.2766 6.89985 10.29 6.81301 10.3214C6.72618 10.3528 6.64665 10.4016 6.57928 10.4647C6.51191 10.5279 6.45811 10.6041 6.42116 10.6888C6.38421 10.7734 6.36489 10.8647 6.36437 10.957H5.36437C5.39397 10.5224 5.59273 10.1167 5.91802 9.82688C6.24331 9.53711 6.66922 9.38637 7.10437 9.407ZM11.1944 9.412C12.3444 9.412 13.1294 10.452 13.1294 11.947C13.1294 13.442 12.3444 14.482 11.2094 14.482C10.0744 14.482 9.25937 13.442 9.25937 11.947C9.25937 10.452 10.0444 9.412 11.1944 9.412ZM11.1944 10.322C10.5394 10.322 10.2594 11.037 10.2594 11.947C10.2594 12.857 10.5294 13.572 11.1944 13.572C11.8594 13.572 12.1294 12.857 12.1294 11.947C12.1294 11.037 11.8494 10.322 11.1944 10.322Z" fill="black"/>
</svg>

<svg xmlns="http://www.w3.org/2000/svg" viewBox="0 0 24 24">
  <path d="M16.06 9.542a.135.135 0 01.184 0l1.865 1.865.56.545a.131.131 0 01.03.147.131.131 0 01-.03.043l-2.425 2.425a.135.135 0 01-.185 0l-.56-.56a.126.126 0 01-.03-.143.126.126 0 01.03-.042l1.77-1.775-1.77-1.775a.125.125 0 010-.17l.56-.56zm-8.956-.135a1.426 1.426 0 011.6 1.43 1.175 1.175 0 01-.6 1.07 1.13 1.13 0 01.68 1.07 1.508 1.508 0 01-1.68 1.5 1.676 1.676 0 01-1.815-1.57h1a.745.745 0 00.8.73.644.644 0 00.71-.65c0-.415-.32-.665-.775-.665H6.71v-.815h.28c.415 0 .735-.21.735-.615a.595.595 0 00-.64-.61.68.68 0 00-.72.675h-1a1.665 1.665 0 011.74-1.55zm4.09.005c1.15 0 1.935 1.04 1.935 2.535s-.785 2.535-1.92 2.535c-1.135 0-1.95-1.04-1.95-2.535s.785-2.535 1.935-2.535zm0 .91c-.655 0-.935.715-.935 1.625s.27 1.625.935 1.625.935-.715.935-1.625-.28-1.625-.935-1.625z"/>
</svg>
